icon-themes/elementary_svg/sc/res/nc01.svg

<svg viewBox="0 0 16 16" xmlns="http://www.w3.org/2000/svg"><path d="m .5 2.0000005a.49930579.49930579 0 0 0 -.5.5v10.9999995a.49930579.49930579 0 0 0  .5.5h15a .49930579.49930579 0 0 0  .5-.5v-10.9999995a.49930579.49930579 0 0 0 -.5-.5zm.49804688.9980469h14.00390612v10.0039056h-14.00390612zm4.00195312.001953v2h-4v1h4v3h-4v .9999996h4v3h1v-3h3.9999995v3h1.0000005v-3h4v-.9999995h-4v-3h4v-1h-4v-2h-1.0000005v2h-3.9999995v-2zm1 3h3.9999995v3h-3.9999995z" fill="#565656"/></svg>

<svg xmlns="http://www.w3.org/2000/svg" viewBox="0 0 16 16"><defs><linearGradient id="a" gradientTransform="matrix(.59436 0 0 .5999 -19.265 1.967)" gradientUnits="userSpaceOnUse" x1="25.132" x2="25.132" y1="15.5" y2="48.396"><stop offset="0" stop-color="#fafafa"/><stop offset="1" stop-color="#e2e1de"/></linearGradient></defs><rect height="10" rx=".424" ry=".491" width="14" x="1" y="3" fill="url(#a)"/><path d="M.5 2a.5.5 0 0 0-.5.5v11a.5.5 0 0 0 .5.5h15a.5.5 0 0 0 .5-.5v-11a.5.5 0 0 0-.5-.5zm.498.998h14.004v10.004H.998zM5 3v2H1v1h4v3H1v1h4v3h1v-3h4v3h1v-3h4V9h-4V6h4V5h-4V3h-1v2H6V3zm1 3h4v3H6z" fill="#565656"/></svg>
